X:351
T:McIntyre's Fancy
T:Siobh\'an O'Donnell's #2
R:jig
C:John Brady
H:Also in Bm, #422
H:Attributed to Siobh\'an O'Donnell in many places, but not composed by her.
D:Mary Custy & Eoin O'Neill: With a lot of help from their friends
D:Michael McGoldrick: Morning Rory
Z:id:hn-jig-351
M:6/8
L:1/8
K:Am
cde AGE|GAB A3|eag edc|eAB AGE|
cde dcA|~G3 Gcd|ega ged|cAG A3:|
|:~a3 ged|edg edc|~A3 GAc|dec deg |
aeg dec|~A3 GEG|cde ged|cAG A3:|

